!!!COM: Scarlatti, Domenico
!!!CDT: 1685-1757
!!!OTL: Sonata in F major, L.166, K.85
!!!SCT: K. 085
!!!SCT: L. 166
!!!OMD: (Allegro) ([quarter]=126)
**kern	**kern	**dynam
*staff2	*staff1	*staff1/2
*Icemba	*Icemba	*
*I"L.166 (K.85)	*I"L.166 (K.85)	*
*>[A,A]	*>[A,A]	*>[A,A]
*>norep[A]	*>norep[A]	*>norep[A]
*>A	*>A	*>A
*clefF4	*clefG2	*
*k[b-]	*k[b-]	*
*F:	*F:	*
*met(c)	*met(c)	*
*M4/4	*M4/4	*
*MM126	*MM126	*
4r	16r	f <
.	(16ccLL	.
.	16dd	.
.	16eeJJ	[[
=1	=1	=1
4F^	8ff'L)	.
.	8cc'	.
4r	8a'	.
.	8f'J	.
4F^	8ff'L	.
.	8cc'	.
4r	8a'	.
.	8f'J	.
=2	=2	=2
(4F^	8ff'L	.
.	(16eeL	.
.	16ffJJ	.
4C	16ggLL	.
.	16aa	.
.	16bb-	.
.	16ggJJ	.
4FF)	16aaLL	.
.	16cc	.
.	16dd	.
.	16eeJJ	.
8r	16ffLL	.
.	16cc	.
8F'	16ff	p
.	16ccJJ	.
!!LO:LB:g=z
=3	=3	=3
(8EL	16ggLL	.
.	16cc	.
8C	16gg	.
.	16ccJJ	.
8F	16aaLL	.
.	16cc	.
8FFJ	16aa	.
.	16ccJJ	.
4C)	16ggLL	.
.	16ff	.
.	16ee	.
.	16ddJJ	.
16r	4cc)	<
(16CLL	.	.
16D	.	.
16EJJ	.	[[
=4	=4	=4
16FLL	8r	<
16C	.	.
16F	(8ccL	.
16CJJ	.	.
16FLL	8ff)	.
16C	.	.
16F	8f'J	.
16CJJ	.	.
16GLL	8r	.
16C	.	.
16G	(8eeL	.
16CJJ	.	.
16GLL	8gg)	.
16C	.	.
16G	8g'J	.
16CJJ	.	.
=5	=5	=5
16ALL	8r	.
16C	.	.
16A	(8ffL	.
16CJJ	.	.
16ALL	8aa)	.
16C	.	.
16A	8a'J	.
16CJJ	.	.
16B-LL	8r	.
16c	.	.
16B-	(8ggL	.
16AJJ	.	.
16GLL	8bb-)	.
16F	.	.
16E	8b-'J	.
16DJJ	.	.
!!LO:LB:g=z
=6	=6	=6
4C)	8bb-'^L	f
.	(16aaL	.
.	16ggJJ	.
(4F	16aaLL	.
.	16ff	.
.	16ee	.
.	16ffJJ	.
4BB-	16ggLL	.
.	16aa	.
.	16bb-	.
.	16ggJJ	.
4C	16aaLL	.
.	16ff	.
.	16gg	.
.	16eeJJ	.
=7	=7	=7
4FF)	16ffLL	.
.	16cc	.
.	16dd	.
.	16eeJJ	.
8r	16ffLL	.
.	16cc	.
8F'	16ff	p
.	16ccJJ	.
(8EL	16ggLL	.
.	16cc	.
8C	16gg	.
.	16ccJJ	.
8F	16aaLL	.
.	16cc	.
8FFJ	16aa	.
.	16ccJJ	.
=8	=8	=8
4C)	16ggLL	.
.	16ff	.
.	16ee	.
.	16ddJJ	.
16r	4cc)	<
(16CLL	.	.
16D	.	.
16EJJ	.	.
4F)	16r	.
.	(16aLL	.
.	16bn	.
.	16ccJJ	.
16r	4dd)	.
(16DLL	.	.
16E	.	.
16FJJ	.	.
!!LO:LB:g=z
=9	=9	=9
4G)	16r	.
.	(16ddLL	.
.	16ee	.
.	16ffJJ	.
16r	4gg)	.
(16GGLL	.	.
16AA	.	.
16BBnJJ	.	.
4C)	16r	.
!	!	!LO:DY:rj
.	(16gLL<	f
.	16a	.
.	16bnJJ	.
8r	16ccLL	.
.	16g	.
8c'	16cc	.
.	16gJJ	.
=10	=10	=10
(8BnL	16ddLL	.
.	16g	.
8G	16dd	.
.	16gJJ	.
8c	16eeLL	.
.	16g	.
8CJ	16ee	.
.	16gJJ	.
4G)	16ddLL	.
.	16cc	.
.	16bn	.
.	16aJJ	.
16r	4g)	.
!	!	!LO:HP:a=2
(<16GGLL	.	<
16AA	.	.
16BBnJJ	.	.
=11	=11	=11
!	!	!LO:DY:a=2
16CLL	8r	[ fp
16GG	.	.
16C	(8gL	.
16GGJJ	.	.
16CLL	8cc)	.
16GG	.	.
16C	8c'J	.
16GGJJ	.	.
16DLL	8r	<
16GG	.	.
16D	(8bnL	.
16GGJJ	.	.
16DLL	8dd)	.
16GG	.	.
16D	8d'J	.
16GGJJ	.	.
!!LO:LB:g=z
=12	=12	=12
16ELL	8r	.
16GG	.	.
16E	(8ccL	.
16GGJJ	.	.
16ELL	8ee)	.
16GG	.	.
16E	8e'J	.
16GGJJ	.	.
16FLL	8r	.
16GG	.	.
16F	(8ddL	.
16GGJJ	.	.
16FLL	8ff)	.
16GG	.	.
16F	8f'J	.
16GGJJ	.	.
=13	=13	=13
4G)	8ff'^L	.
.	(16eeL	.
.	16ddJJ	.
(4C	16eeLL	.
.	16cc	.
.	16bn	.
.	16ccJJ	.
4FF	16ddLL	.
.	16ee	.
.	16ff	.
.	16ddJJ	.
4GG	16eeLL	.
.	16cc	.
.	16dd	.
.	16bJJ	.
=14	=14	=14
4CC)	16ccLL<	.
.	16g	.
.	16a	.
.	16bnJJ	.
16r	4cc)	p
(16CLL	.	.
16D	.	.
16EJJ	.	.
4F)	16r	<
.	(16aLL	.
.	16b	.
.	16cc#JJ	.
16r	4dd)	.
(16DLL	.	.
16E	.	.
16FJJ	.	.
!!LO:LB:g=z
=15	=15	=15
4G)	16r	.
.	(16ddLL	.
.	16ee	.
.	16ffJJ	.
(4GG	16ggLL	.
.	16ff	.
.	16ee	.
.	16ddJJ	.
4AA)	16cc#LL	.
.	16bn	.
.	16cc#	.
.	16ddJJ	.
(4A	16eeLL	.
.	16a	.
.	16b	.
.	16cc#JJ	.
=16	=16	=16
4F	16ddLL	.
.	16a	.
.	16dd	.
.	16aJJ	.
4C#\	16eeLL	.
.	16a	.
.	16ee	.
.	16aJJ	.
4D	16ffLL	.
.	16a	.
.	16ff	.
.	16aJJ	.
4E	16ggLL	.
.	16a	.
.	16gg	.
.	16aJJ	.
=17	=17	=17
8FL	16aaLL	f
.	16dd	.
8G	16gg	.
.	16eeJJ	.
8A)	16ffLL	.
.	16dd	.
8AA'J	16ee	.
.	16cc#JJ	.
4D^	16ddLL	.
.	16a	.
.	16bn	.
.	16cc#JJ	.
16r	4dd)	p
(16DLL	.	.
16E	.	.
16F#JJ	.	.
!!LO:LB:g=z
=18	=18	=18
4G)	16r	.
.	(16dLL	<
.	16e	.
.	16f#JJ	.
16r	4g)	.
(16GGLL	.	.
16AA	.	.
16BBnJJ	.	.
4C)	16r	.
.	(16gLL	.
.	16a	.
.	16bnJJ)	.
16r	4cc	.
(16CLL	.	.
16D	.	.
16EJJ	.	.
=19	=19	=19
4F)	16r	.
.	(16ccLL	.
.	16dd	.
.	16eeJJ	.
16r	4ff)	.
(16FLL	.	.
16G	.	.
16AJJ	.	.
4B-X)	16r	.
!	!	!LO:DY:rj
.	(16ffLL	f
.	16gg	.
.	16aaJJ	.
8r	16bb-XLL	.
.	16aa	.
8BB-'	16gg	.
.	16ffJJ	.
=20	=20	=20
4C	16ee-LL	.
.	16cc	.
.	16ee-	.
.	16ggJJ	.
8r	16cccLL	.
.	16bb-	.
8C'	16aa	.
.	16ggJJ	.
4D	16ff#LL	.
.	16een	.
.	16ff#	.
.	16ggJJ	.
16r	8aa'L)	<
(16DLL	.	.
16E	8dd'J	.
16F#JJ	.	[
!!LO:LB:g=z
=21	=21	=21
16GLL	8r	fp
16D	.	.
16G	(8ddL	.
16DJJ	.	.
16GLL	8gg)	.
16D	.	.
16G	8g'J	.
16DJJ	.	.
16ALL	8r	.
16D	.	.
16A	(8ff#L	<
16DJJ	.	.
16ALL	8aa)	.
16D	.	.
16A	8a'J	.
16DJJ	.	.
=22	=22	=22
16B-XLL	8r	.
16D	.	.
16B-	(8ggL	.
16DJJ	.	.
16B-LL	8bb-)	.
16D	.	.
16c	8b-'J	.
16DJJ	.	.
16cLL	8r	.
16D	.	.
16c	(8aaL	.
16DJJ	.	.
16cLL	8ccc)	.
16D	.	.
16c	8cc'J	.
[16DJJ	.	.
=23	=23	=23
4D] 4d)	8ccc'^L	f
.	(16bb-L	.
.	16aaJJ	.
(4G	16bb-LL	.
.	16gg	.
.	16ff#	.
.	16ggJJ	.
4C\	16aaLL	.
.	16bb-	.
.	16ccc	.
.	16aaJJ	.
4D	16bb-LL	.
.	16gg	.
.	16aa	.
.	16ff#JJ	.
!!LO:LB:g=z
=24	=24	=24
4GG)	16ggLL	.
.	16dd	.
.	16ee	.
.	16ff#JJ	.
16r	([4gg)	.
(16GLL	.	<
16A	.	.
16BnJJ	.	.
4c	16ggLL]	[ fp
.	16ffn	.
.	16ee	.
.	16ddJJ	.
4C	16ccLL<	.
.	16bn	.
.	16a	.
.	16gJJ	.
=25	=25	=25
4F)	16aLL	<
.	16f	.
.	16a	.
.	16ccJJ	.
*	*	*^
!	!	!	!LO:HP:b=2
16r	([4ff)	[	<
(16FLL	.	<	.
16G	.	.	.
16AJJ	.	.	[[
*	*	*v	*v
4Bn	16ffLL]	>
.	16ee	.
.	16dd	.
.	16ccJJ	.
4BBn	16bnLL	.
.	16a	.
.	16g#	.
.	16f#JJ	]]
=26	=26	=26
4E)	16g#LL	<
.	16e	.
.	16g#	.
.	16bnJJ	.
*	*	*^
!	!	!	!LO:HP:b=2
16r	([4ee)	[	<
(16ELL	.	.	.
16F#	.	.	.
16G#JJ	.	.	[[
*	*	*v	*v
4A	16eeLL]	>
.	16ddn	.
.	16cc	.
.	16bJJ	.
4AA	16aLL	.
.	16gn	.
.	16f	.
.	16eJJ	]]
!!LO:LB:g=z
=27	=27	=27
4D)	16fLL	<
.	16d	.
.	16f	.
.	16aJJ	[
16r	([4dd)	f
(16dLL	.	.
16c	.	.
16dJJ	.	.
16BnLL	16ddLL]	.
16c	16ee	.
16A	16cc	.
16BJJ	16ddJJ	.
16GLL	16bnLL	.
16A	16cc	.
16F	16a	.
16GJJ	16bJJ	.
=28	=28	=28
4E)	16gLL	.
.	16c	.
.	16e	.
.	16gJJ	.
16r	([4cc)	.
(16cLL	.	.
16B-X	.	.
16cJJ	.	.
16ALL	16ccLL]	.
16B-	16dd	.
16G	16b-X	.
16AJJ	16ccJJ	.
16FLL	16aLL<	.
16G	16b-	.
16E	16g	.
16FJJ	16aJJ	.
=29	=29	=29
4D/)	16fLL	.
.	16g	.
.	16a	.
.	16b-JJ	.
(4C	16ccLL	.
.	16dd	.
.	16ee	.
.	16ccJJ	.
16DLL	4ff)	.
16E	.	.
16F	.	.
16GJJ	.	.
16ALL	(4ee	.
16B-	.	.
16c	.	.
16AJJ	.	.
!!LO:LB:g=z
=30	=30	=30
4B-)	16ddLL	.
.	16ee	.
.	16ff	.
.	16ggJJ	.
(4A	16aaLL	.
.	16bb-	.
.	16ccc	.
.	16aaJJ	.
4G	16bb-LL	.
.	16aa	.
.	16gg	.
.	16ffJJ	.
4C	16eeLL	.
.	16dd	.
.	16cc	.
.	16b-JJ	.
=31	=31	=31
4F)	16aLL	.
.	16g	.
.	16a	.
.	16bnJJ	.
16r	4cc)	<
(16CLL	.	.
16D	.	.
16EJJ	.	.
16FLL	8r	.
16C	.	.
16F	(8ccL	[ fp
16CJJ	.	.
16FLL	8ff)	.
16C	.	.
16F	8f'J	.
16CJJ	.	.
=32	=32	=32
16GLL	8r	.
16C	.	<
16G	(8eeL	.
16CJJ	.	.
16GLL	8gg)	.
16C	.	.
16G	8g'J	.
16CJJ	.	.
4A)	16r	f
.	(16ccLL	.
.	16dd	.
.	16eeJJ	.
8r	16ffLL	.
.	16cc	.
8F'	16ff	p
.	16ccJJ	.
!!LO:LB:g=z
=33	=33	=33
(8EL<	16ggLL	<
.	16cc	.
8C	16gg	.
.	16ccJJ	.
8F	16aaLL	.
.	16cc	.
8FFJ	16aa	.
.	16ccJJ	.
[4C	16ggLL	f
.	16ff	.
.	16ee	.
.	16ddJJ	.
16CLL]	4cc)	.
16D	.	.
16E	.	.
16F#JJ	.	.
=34	=34	=34
4G)	16r	.
.	(16ddLL	.
.	16ee	.
.	16ff#JJ	.
8r	16ggLL	.
.	16dd	.
8G'	16gg	p
.	16ddJJ	.
(8F#L	16aaLL	<
.	16dd	.
8D	16aa	.
.	16ddJJ	.
8G	16bb-LL	.
.	16dd	.
8GGJ	16bb-	.
.	16ddJJ	.
=35	=35	=35
[4D	16aaLL	f
.	16gg	.
.	16ff#	.
.	16eeJJ	.
16DLL]	4dd)	.
16E	.	.
16F#	.	.
16G#JJ	.	.
4A)	16r	.
.	(16eeLL	.
.	16ff#	.
.	16gg#JJ	.
8r	16aaLL	.
.	16ee	.
8A'	16aa	p
.	16eeJJ	.
!!LO:LB:g=z
=36	=36	=36
(8G#L	16bbnLL	<
.	16ee	.
8E	16bb	.
.	16eeJJ	.
8A	16cccLL	.
.	16ee	.
8AAJ	16ccc	.
.	16eeJJ	.
[4E	16bbLL	f
.	16aa	.
.	16gg#	.
.	16ff#JJ	.
16ELL<]	([4ee)	>
16D	.	.
16C	.	.
16BBnJJ	.	]]
=37	=37	=37
4AA)	16eeLL]	mf
.	16dd	.
.	16cc	.
.	16bnJJ	.
(4C	16aLL	.
.	16g	.
.	16f	.
.	16eJJ	.
4D/)	16fLL	.
.	16d	.
.	16f	.
.	16aJJ	.
(16dLL	([4dd)	.
16c	.	.
16Bn	.	.
16AJJ	.	.
=38	=38	=38
4G)	16ddLL]	.
.	16cc	.
.	16bn	.
.	16aJJ	.
(4GG	16gLL	.
.	16f	.
.	16e	.
.	16dJJ	.
4C)	16eLL	.
.	16c	.
.	16e	.
.	16gJJ	.
16r	([4cc)	.
(16CLL	.	.
16D	.	.
16EJJ	.	.
!!LO:LB:g=z
=39	=39	=39
16FLL	4cc_	.
16G	.	.
16A	.	.
16BnJJ	.	.
4c	16ccLL]	.
.	16bn	.
.	16a	.
.	16gJJ	.
4d')	16fLL	.
.	16d	.
.	16f	.
.	16aJJ	.
16r	([4dd)	.
(16DLL	.	.
16E	.	.
16F#JJ	.	.
=40	=40	=40
16GLL	4dd_	.
16A	.	.
16Bn	.	.
16cJJ	.	.
4d	16ddLL]	.
.	16cc	.
.	16bn	.
.	16aJJ	.
4e')	16g#LL	.
.	16e	.
.	16g#	.
.	16bJJ	.
16r	4ee)	.
(16ELL	.	<
16F#	.	.
16G#JJ	.	[[
=41	=41	=41
16ALL	8r	fp
16E	.	.
16A	(8eeL	.
16EJJ	.	.
16ALL	8aa)	<
16E	.	.
16A	8a'J	.
16EJJ	.	.
16BnLL	8r	.
16E	.	.
16B	(8gg#L	.
16EJJ	.	.
16BLL	8bbn)	.
16E	.	.
16B	8bn'J	.
16EJJ	.	.
!!LO:LB:g=z
=42	=42	=42
4c)	16r	.
.	(16eeLL	f
.	16ffn	.
.	16ggnJJ	.
8r	16aaLL	.
.	16gg	.
(8C\	16ff	.
.	16eeJJ	.
8DL	16ffLL	.
.	16ee	.
8E	16dd	.
.	16ccJJ	.
8F	16ddLL	.
.	16cc	.
8DJ	16b-X	.
.	16aJJ	.
=43	=43	=43
8GL<	16b-LL	.
.	16g	.
8GGJ)	16b-	.
.	16ddJJ	.
8r	16ggLL	.
.	16ff	.
(8GG	16ee	.
.	16ddJJ	.
8CL	16eeLL	.
.	16dd	.
8D	16cc	.
.	16b-JJ	.
8E	16ccLL	.
.	16b-	.
8CJ	16a	.
.	16gJJ	.
=44	=44	=44
8FL	16aLL	.
.	16f	.
8FFJ)	16a	.
.	16ccJJ	.
8r	16ffLL	.
.	16ee	.
8A'	16dd	.
.	16ccJJ	.
(4B-	16ddLL	.
.	16cc	.
.	16b-	.
.	16aJJ	.
4BB-	16b-LL	.
.	16a	.
.	16g	.
.	16fJJ	.
!!LO:LB:g=z
=45	=45	=45
4C)	16eLL	.
.	16f	.
.	16g	.
.	32aL	.
.	32bnJJJ	.
16r	4cc)	.
(16CLL	.	<
16D	.	.
16EJJ	.	.
16FLL	8r	.
16C	.	.
!	!	!LO:DY:rj
16F	(8ccL	[ fp
16CJJ	.	<
16FLL	8ff)	.
16C	.	.
16F	8f'J	.
16CJJ	.	.
=46	=46	=46
16GLL	8r	.
16C	.	.
16G	(8eeL	.
16CJJ	.	.
16GLL	8gg)	.
16C	.	.
16G	8g'J	.
16CJJ	.	.
16ALL	8r	.
16C	.	.
16A	(8ffL	.
16CJJ	.	.
16ALL	8aa)	.
16C	.	.
16A	8a'J	.
16CJJ	.	.
=47	=47	=47
16B-LL	8r	f
16C	.	.
16B-	(8ggL	.
16CJJ	.	.
16B-LL	8bb-)	.
16C	.	.
16B-	8b-'J	.
16CJJ	.	.
16cLL	8r	.
16B-	.	.
16A	(8ccL	.
16GJJ	.	.
16FLL	8ff)	.
16E	.	.
16D	8f'J	.
16CJJ	.	.
!!LO:LB:g=z
=48	=48	=48
4BB-)	16r	.
.	(16ffLL	.
.	16gg	.
.	16ffJJ	.
(4C	16eeLL	.
.	16dd	.
.	16cc	.
.	16b-JJ	.
4FF)	16aLL	.
.	16f	.
.	16a	.
.	16ccJJ	.
4r	16ffLL	.
.	16cc	.
.	16a	.
.	16ccJJ	.
=49	=49	=49
16r	4f)	.
(16cLL	.	.
16A	.	.
16cJJ	.	.
16FLL	4r	.
16A	.	.
16C	.	.
16FJJ	.	.
4FF)	2r	.
4r	.	.
==:|!	==:|!	==:|!
*-	*-	*-
!!!RDF**kern: > = above
!!!RDF**kern: < = below
!!!PTL: Domenico Scarlatti: Opere complete per clavicembalo
!!!PED: Longo, Alessandro
!!!PPR: Ricordi
!!!PPP: Milan
!!!PDT: 1906-1913
!!!ENC: Craig Stuart Sapp
!!!END: 2014/06/04
!!!EED: Craig Stuart Sapp
!!!EEV: 2021/05/28
